svgs/regular/engine-warning.svg

<svg xmlns="http://www.w3.org/2000/svg" viewBox="0 0 640 512"><!--! Font Awesome Pro 6.3.0 by @fontawesome - https://fontawesome.com License - https://fontawesome.com/license (Commercial License) Copyright 2023 Fonticons, Inc. --><path d="M424 88c0 13.3-10.7 24-24 24l-72 0v32l81.5 0c14.5 0 28.6 4.9 40 14L488 188.8c15.2 12.1 24 30.5 24 50V384c0 35.3-28.7 64-64 64H254.8c-19.4 0-37.8-8.8-50-24l-32-40H144c-35.3 0-64-28.7-64-64V280H48v72c0 13.3-10.7 24-24 24s-24-10.7-24-24V160c0-13.3 10.7-24 24-24s24 10.7 24 24v72H80V208c0-35.3 28.7-64 64-64h16 32l88 0V112l-72 0c-13.3 0-24-10.7-24-24s10.7-24 24-24H400c13.3 0 24 10.7 24 24zM304 212c11 0 20 9 20 20v56c0 11-9 20-20 20s-20-9-20-20V232c0-11 9-20 20-20zM280 352a24 24 0 1 1 48 0 24 24 0 1 1 -48 0zM172.8 336c14.6 0 28.4 6.6 37.5 18l32 40c3 3.8 7.6 6 12.5 6H448c8.8 0 16-7.2 16-16V238.8c0-4.9-2.2-9.5-6-12.5l-38.4-30.8c-2.8-2.3-6.4-3.5-10-3.5H192 160 144c-8.8 0-16 7.2-16 16V320c0 8.8 7.2 16 16 16h28.8zM576 192h32c17.7 0 32 14.3 32 32V416c0 17.7-14.3 32-32 32H576c-17.7 0-32-14.3-32-32V224c0-17.7 14.3-32 32-32z"/></svg>

<svg xmlns="http://www.w3.org/2000/svg" viewBox="0 0 640 512"><!--! Font Awesome Pro 6.2.0 by @fontawesome - https://fontawesome.com License - https://fontawesome.com/license (Commercial License) Copyright 2022 Fonticons, Inc. --><path d="M304 212C315 212 324 220.1 324 232V288C324 299 315 308 304 308C292.1 308 284 299 284 288V232C284 220.1 292.1 212 304 212zM328 352C328 365.3 317.3 376 304 376C290.7 376 280 365.3 280 352C280 338.7 290.7 328 304 328C317.3 328 328 338.7 328 352zM424 88C424 101.3 413.3 112 400 112H328V144H409.5C424.1 144 438.2 148.9 449.5 158L487.1 188.8C503.2 200.9 512 219.3 512 238.8V384C512 419.3 483.3 448 448 448H254.8C235.3 448 216.9 439.2 204.8 423.1L172.8 384H144C108.7 384 80 355.3 80 320V280H48V352C48 365.3 37.25 376 24 376C10.75 376 0 365.3 0 352V160C0 146.7 10.75 136 24 136C37.25 136 48 146.7 48 160V232H80V208C80 172.7 108.7 144 144 144H280V112H208C194.7 112 184 101.3 184 88C184 74.75 194.7 64 208 64H400C413.3 64 424 74.75 424 88zM195.9 336L242.3 393.1C245.3 397.8 249.9 400 254.8 400H448C456.8 400 464 392.8 464 384V238.8C464 233.9 461.8 229.3 457.1 226.3L419.5 195.5C416.7 193.2 413.2 192 409.5 192H144C135.2 192 128 199.2 128 208V320C128 328.8 135.2 336 144 336H195.9zM608 192C625.7 192 640 206.3 640 224V416C640 433.7 625.7 448 608 448H576C558.3 448 544 433.7 544 416V224C544 206.3 558.3 192 576 192H608z"/></svg>
